X: 15
T: Raking Red Haired Pat
M: 2/4
L: 1/8
B: "O'Neill's 15"
N: "Tenderly" "collected by J. Ryan"
Z: "Transcribed by Norbert Paap, norbertp@bdu.uva.nl"
K:Gm
d/2-c/2 | B>B (A{BA}G) | A-<d c>A | G>G A--A (F3/2G/4A/4) |
(.B>.B) (A{BA}G) | A-<d (3(cAG) | (.A>.A) (.G>.G) | G3 :||
D | G>-A B-<c | d>-=e f-<d | g>-f e-<c | d>-B G>>D |
G>-A B-<c | d>-=e f-<d | g>-f e-<c | d2 (3(d=e^f) |
g.-f =e-<g | f>-e d-<c | B>-G A>-B | c>-A (F3/2G/4A/4) |
(.B>.B) (A{BA}G) | A-<d (3(cAG) | (.A>.A) (.G>.G) | G3 ||
